X: 250
T:An Bthar  Thuaidh go Tr Li
T:An Bo/thar o/ Thuaidh go Tra/ Li (ASCII)
C:Traditional
N:Play 3 times through
D:Paul McGrattan, 'The Frost is All Over'
R:Slide
M:12/8
L:1/8
Z: Gordon Turnbull
K:Amix
ABA A2 F DED D2 B | ABA AGF G3 B2 B |\
ABA A2 F DED D2 F | EFE E2 F G3 B2 B :||
ABc d2 B cBA BAF | ABc d2 c B3 e3 |\
ABc d2 B cBA BAF | EFE E2 F G3 B2 B :||

